X:1
T:Who at My Door Is Standing?
T:Asa Brooks Everett
T:Who at My Door Is Standing?
T:Public Domain
T:Public Domain
C:Asa Brooks Everett
Z:Public Domain
%%score ( 1 2 ) ( 3 4 )
L:1/8
M:4/4
K:F
V:1 treble 
V:2 treble 
V:3 bass 
V:4 bass 
V:1
 [FA]2 [FA]>[FA] [FA]2 (GF) | [DF]4 [B,D]4 | [A,C]2 [CF]>[FA] [Fc]2 [FA]2 | [EG]8 | %4
w: 1.~Who at my door is *|ing, Pa-|tient- ly draw- ing near,|En-|
w: 2.~Lone- ly with- out He’s *|ing; Lone-|ly with- in am I;|While|
w: 3.~All through the dark hours *|y, Knock-|ing a- gain is He;|Je-|
w: 4.~Door of my heart, I *|en! Thee|will I o- pen wide.|Though|
 [FA]2 [FA]>[FA] [FA]2 (GF) | [DF]4 [B,D]4 | [A,C]2 [CF]>[CA] [Ec]2 [CE]2 | [CF]8 || %8
w: trance with- in de- mand- *|Whose is|the voice I hear? *||
w: I am still de- lay- *|Will He|not pass me by? *||
w: sus, art Thou not wear- *|Wait- ing|so long for me? *||
w: He re- buke and chast- *|He shall|with me a- bide. *||
"^Refrain" [Fd]2 [Fd]>[Fd] [Fd]2 [Fd]2 | [Fc]4 [FA]4 | [Fc]2 [Fd]>[Fc] [Fc]2 [FA]2 | [EG]8 | %12
w: ||||
w: ||||
w: ||||
w: ||||
 [FA]2 [FA]>[FA] [FA]2 (GF) | [DF]4 [B,D]4 | [A,C]2 [CF]>[CA] [Ec]2 [CE]2 | [CF]8 |] %16
w: ||||
w: ||||
w: ||||
w: ||||
V:2
 x6 C2 | x8 | x8 | x8 | x6 C2 | x8 | x8 | x8 || x8 | x8 | x8 | x8 | x6 C2 | x8 | x8 | x8 |] %16
w: stand-||||ing?||||||||||||
w: stay-||||ing,||||||||||||
w: drear-||||y,||||||||||||
w: hast-||||en,||||||||||||
V:3
 [F,C]2 [F,C]>[F,C] [F,C]2 (B,A,) | [B,,B,]4 [B,,F,]4 | F,2 [F,A,]>[F,C] [F,A,]2 [F,C]2 | [C,C]8 | %4
w: ~ ~ ~ ~ ~ *|~ ~|~ ~ ~ ~ ~|~|
 [F,C]2 [F,C]>[F,C] [F,C]2 (B,A,) | [B,,B,]4 [B,,F,]4 | [C,F,]2 [C,B,]>[C,F,] [C,G,]2 [C,B,]2 | %7
w: ~ ~ ~ ~ ~ *|~ ~|~ ~ ~ Sweet- ly|
 [F,A,]8 || [B,,B,]2 [B,,B,]>[B,,B,] [B,,B,]2 [B,,B,]2 | [F,A,]4 [F,C]4 | %10
w: the|tones are fall- ing; “O-|pen the|
 [F,A,]2 [F,B,]>[F,A,] [F,A,]2 [F,C]2 | [C,C]8 | [F,C]2 [F,C]>[F,C] [F,C]2 (B,A,) | %13
w: door for Me! If thou|wilt|heed My call- ing, I *|
 [B,,B,]4 [B,,F,]4 | [C,F,]2 [C,A,]>[C,F,] [C,G,]2 [C,B,]2 | [F,A,]8 |] %16
w: a- bide|with thee.” * * *||
V:4
 x6 F,2 | x8 | F,2 x6 | x8 | x6 F,2 | x8 | x8 | x8 || x8 | x8 | x8 | x8 | x6 F,2 | x8 | x8 | x8 |] %16
w: ~||~||~||||||||will||||

